packages/core/src/svgs/lovely.svg

<svg width="24" height="24" viewBox="0 0 24 24" fill="none" xmlns="http://www.w3.org/2000/svg">
<g clip-path="url(#clip0_31_13360)">
<path d="M0 0H24V24H0V0Z" fill="#181B1E"/>
<path d="M5.14282 13.7143H11.1428V19.2857C8.39997 18.0557 5.99997 15.06 5.14282 13.7143ZM18.4285 13.7143H12.4285V19.2857C15.1714 18.0557 17.5714 15.06 18.4285 13.7143ZM5.54568 12.4286H11.1428V8.37C10.9582 7.80023 10.5961 7.30446 10.1095 6.95516C9.62297 6.60586 9.03745 6.42134 8.43854 6.42857C6.29997 6.42857 5.14282 9.27857 5.14282 10.2857C5.14282 11.0957 5.41282 12.0514 5.54568 12.4286ZM18.8228 12.4286H12.4285V7.8C12.6428 7.10571 13.5685 6 15.5185 6C17.9614 6 19.2857 9.05143 19.2857 10.1357C19.2857 11.0014 18.9771 12.0214 18.8228 12.4286Z" fill="#D8337B"/>
</g>
<defs>
<clipPath id="clip0_31_13360">
<rect width="24" height="24" fill="white"/>
</clipPath>
</defs>
</svg>

<svg xmlns="http://www.w3.org/2000/svg" width="24" height="24" fill="none" viewBox="0 0 24 24"><g clip-path="url(#a)"><path fill="#181B1E" d="M0 0h24v24H0z"/><path fill="#D8337B" d="M5.143 13.714h6v5.572c-2.743-1.23-5.143-4.226-6-5.572m13.285 0h-6v5.572c2.743-1.23 5.143-4.226 6-5.572M5.547 12.43h5.597V8.37a2.81 2.81 0 0 0-2.704-1.941c-2.139 0-3.296 2.85-3.296 3.857 0 .81.27 1.765.403 2.143m13.277 0h-6.395V7.8c.215-.694 1.14-1.8 3.09-1.8 2.443 0 3.768 3.051 3.768 4.136 0 .865-.309 1.885-.463 2.293"/></g><defs><clipPath id="a"><path fill="#fff" d="M0 0h24v24H0z"/></clipPath></defs></svg>
